X: 2
T: The Ash Grove
R: waltz
M: 3/4
L: 1/8
K: Dmaj
|: "A"A | "D"dfa/g/ | "D"fdd | "G"eg/f/e/d/ | "A"cAA |"D"df/e/d/c/ | "G"BGB | "D"Ad"A"c | "D"d2 :||: e//f//g/ |"D"af/g/a/b/ | "D"agf | "A"ge/f/g/a/ | "A7"gfe | "D"fd/e/f/g/ |"Bm"fed | "A"ca"E"^g | "A"a2 A | "D"dfa/g/ | "D"fdd |"G"eg/f/e/d/ | "A"cAA | "D"df/e/d/c/ | "G"BGB | "D"Ad"A7"c | "D"d2 :||


Tune 997	Setting 26141

